storage/app/icons/phosphoricons/duotone/music-notes-plus-duotone.svg

<svg xmlns="http://www.w3.org/2000/svg" fill="currentColor" viewBox="0 0 256 256"><path d="M208 164a28 28 0 1 1-28-28 28 28 0 0 1 28 28m-156 4a28 28 0 1 0 28 28 28 28 0 0 0-28-28" opacity=".2"/><path d="M232 48a8 8 0 0 1-8 8h-16v16a8 8 0 0 1-16 0V56h-16a8 8 0 0 1 0-16h16V24a8 8 0 0 1 16 0v16h16a8 8 0 0 1 8 8m-16 64v52a36 36 0 1 1-16-29.92V112a8 8 0 0 1 16 0m-16 52a20 20 0 1 0-20 20 20 20 0 0 0 20-20M88 110.25V196a36 36 0 1 1-16-29.92V56a8 8 0 0 1 6.06-7.76l56-14a8 8 0 0 1 3.88 15.52L88 62.25v31.5l70.06-17.51a8 8 0 0 1 3.88 15.52ZM72 196a20 20 0 1 0-20 20 20 20 0 0 0 20-20"/></svg>

<svg xmlns="http://www.w3.org/2000/svg" viewBox="0 0 256 256" fill="currentColor"><path d="M208,164a28,28,0,1,1-28-28A28,28,0,0,1,208,164ZM52,168a28,28,0,1,0,28,28A28,28,0,0,0,52,168Z" opacity="0.2"/><path d="M232,48a8,8,0,0,1-8,8H208V72a8,8,0,0,1-16,0V56H176a8,8,0,0,1,0-16h16V24a8,8,0,0,1,16,0V40h16A8,8,0,0,1,232,48Zm-16,64v52a36,36,0,1,1-16-29.92V112a8,8,0,0,1,16,0Zm-16,52a20,20,0,1,0-20,20A20,20,0,0,0,200,164ZM88,110.25V196a36,36,0,1,1-16-29.92V56a8,8,0,0,1,6.06-7.76l56-14a8,8,0,0,1,3.88,15.52L88,62.25v31.5l70.06-17.51a8,8,0,0,1,3.88,15.52ZM72,196a20,20,0,1,0-20,20A20,20,0,0,0,72,196Z"/></svg>
